packages/sources/icons/src/vitamix/twitter-line.svg

<svg width="16" height="16" viewBox="0 0 16 16" xmlns="http://www.w3.org/2000/svg"><path fill-rule="evenodd" clip-rule="evenodd" d="M8.986 2.59956C7.76594 3.08773 6.95718 4.25944 6.93339 5.57331C6.89031 5.56739 6.85034 5.56296 6.8108 5.55799C6.52535 5.52215 6.29678 5.49345 5.61872 5.21531C4.45872 4.73931 3.31405 3.84198 2.18539 2.52398C-0.146326 8.13767 3.2236 10.3326 4.26839 11.0132C4.30108 11.0345 4.3315 11.0543 4.35939 11.0726C3.27272 11.868 1.39272 12.07 0.930054 12.106C1.83805 13.054 5.00605 13.768 7.18472 13.3333C10.3621 12.6993 13.4934 10.222 13.4934 5.12731C13.9694 4.47465 14.0794 3.99998 14.3027 2.90665C13.5408 3.36839 13.1347 3.35451 12.7413 3.34106C12.669 3.33859 12.597 3.33613 12.5234 3.33665C11.5998 2.40182 10.2061 2.11139 8.986 2.59956ZM8.26671 5.59799C8.28597 4.54406 9.14594 3.69982 10.2 3.69999C11.4854 3.69999 12.16 4.80866 12.16 5.12733C12.16 9.03133 10.0687 11.398 6.92337 12.026C6.42604 12.1247 5.82671 12.1527 5.19537 12.1133L6.25671 11.338C6.36398 11.2599 6.42551 11.1336 6.42097 11.001C6.41643 10.8683 6.3464 10.7466 6.23404 10.676L5.06937 9.94399C3.19404 8.76466 2.41537 7.23599 2.81404 5.02933C4.07271 6.07799 5.38471 6.70866 6.75404 6.89533L7.79471 7.03666C7.90773 7.05189 8.02188 7.01814 8.10847 6.94391C8.19505 6.86968 8.24583 6.76202 8.24804 6.64799L8.26671 5.59799Z"/></svg>

<svg width="16" height="16" xmlns="http://www.w3.org/2000/svg"><path fill-rule="evenodd" clip-rule="evenodd" d="M8.986 2.6a3.267 3.267 0 0 0-2.053 2.973l-.122-.015c-.286-.036-.514-.065-1.192-.343-1.16-.476-2.305-1.373-3.434-2.691-2.331 5.614 1.039 7.809 2.083 8.49.033.02.064.04.091.059-1.086.795-2.966.997-3.429 1.033.908.948 4.076 1.662 6.255 1.227 3.177-.634 6.308-3.111 6.308-8.206.476-.652.586-1.127.81-2.22-.762.461-1.168.448-1.562.434-.072-.002-.144-.005-.218-.004A3.267 3.267 0 0 0 8.986 2.6Zm-.72 2.998A1.933 1.933 0 0 1 10.2 3.7c1.285 0 1.96 1.109 1.96 1.427 0 3.904-2.091 6.271-5.237 6.899-.497.099-1.096.127-1.728.087l1.062-.775a.4.4 0 0 0-.023-.662l-1.165-.732c-1.875-1.18-2.654-2.708-2.255-4.915 1.259 1.049 2.57 1.68 3.94 1.866l1.04.142a.4.4 0 0 0 .454-.389l.019-1.05Z"/></svg>
